!!!COM: Anon.
!!!OTL: We Made Fire
!!!ODT: <1918//
!!!MPN: Apaugus [White Clay Nose, Butterfly]
!!!MLC: Fort Berthold Reservation, North Dakota, United States of America
!! Song was recorded during either the summer of 1912, 1915, or 1918.
!!!AGN: monody
!!!AST: Mandan and Hidatsa Miscellaneous Songs
!!!AMT: irregular
!!!RWG: Transcribed pitches, durations, and meters are only approximate.
!! Drum Tempo: MM80
!! Drum-rhythm: (8 8) (8 8) (8 8) (8 8)
**kern
*ICvox
*Imale
*clefF4
*k[f#c#g#d#a#]
*M3/4
*MM80
8.d#
16d#
=1
8g#
16g#
16g#
4.g#
16d#
16d#
=2
8g#
8g#
(8g#
8d#)
(8.d#
16c#)
=3
8d#
(16d#
16c#)
8B
8G#
8G#
8D#
=4
8B
(16B
16G#)
8B
8B
8G#
8G#
=5
8G#
16B
16G#
8G#
8D#
4D#
*M2/4
=6
8.G#
16F#
8D#
8D#
=7
2D#
==
*-
!!!CNT: Hidatsa
!!!TXO: Hidatsa
!!!OCY: United States
!!!OCL: Frances Densmore
!!!YOR: Frances Densmore, "Mandan and Hidatsa Music",
!!!YOR: Bulletin 80, page 174, No. 106
!!!PPR: Smithsonian Institution, Bureau of American Ethnology
!!!PPR: Government Printing Office
!!!PDT: 1923
!!!PPP: Washington, DC, United States of America
!!!YEC: Electronic Copyright 2000 David Huron
!!!YER: August 2000
!!!YEN: United States of America
!!!ENC: David Huron
!!!RDT: August 18, 2000
!!!EEV: Release 1.0
!!!AIN: tom, vox
